X:99
T:Baille de Panderu (CT 285)
C:Tradicional
S:Msica Tradicional Asturiana, (C) Tello & Tito. Asturies, 2001.
S:http://pagina.de/MusTradAst <telloytito@asturies.org>
N:Cancin de Baille de Panderu, transcrita en Luia, ayuntamiento de Ibias.
A:Asturies
O:Luia (Ibias)
Z:Cancioneru de Torner 285
M:6/8
L:1/8
Q:3/8=88
K:G
|: B>cd dcd|e2 d-d3|B>cd dcB|[1 A2 G-G2 z :|[2 A2 G-GGG|
|: c2 d cBA|B2 c BAG|A2 B AGF|[1 G2 G GAB :|[2 G3-G2 z||
W:Avivi las castauelas,
W:nias del baile primero;
W:avivi las castauelas
W:que yo avivar el pandero.
W:La la la la la ra la
W:la la la ra la
W:la la la ra la
W:la la la ra la
W:la la la ra la
W:la la la ra la
W:la la la ra la
W:la.
W:
